X: 1
T: Clinton
T: Going to a Free State
O: American
R: reel
Z: 2012 John Chambers <jc:trillian.mit.edu>
M: C|
L: 1/8
K: A
A,2- |\
A,CE2 FA-A2 | {B}c3c c2A,2- | A,CE2 FA-A2 | B3B B2A,2- |\
A,CE2 FA-A2 | {B}c3c c2e2- | efec B2ef | ecB2 A2 :|
|: fg |\
"A"a2aa fec2 | efec BAA2 | a2aa fecd | e3f e2fg |\
"A"a2aa fec2 | efec BAAB | c2cc BAF2 | EFA2 A2 :|
